X: 9287
T: Dance Of The Mermaid
R: reel
M: 4/4
K: Gmajor
|:G3A B2g2|edBG A2GA|BEE/E/E G3A|BedB A2BA|
G3A B2g2|edBG A3B|cAA/A/A BGG/G/G|1 ABGE GAB2:|2 ABGE G3A||
|:B2e/e/e e3f|g3a gfed|eBB/B/B efge|fed/e/f e3f|
eBB/B/B efge|f2af gfed|cAA/A/A BGG/G/G|1 ABGE G3A:|2 ABGE GAB2||

